**kern	**silbe	**harmony	**phrase	**leadinstrument	**rhyme	**timestamp	**harte
*ICvox	*	*M4/4	*	*	*	*	*M4/4
*VRlead	*	*	*	*	*	*	*
*Hstimme	*	*	*	*	*	*	*
*d:	*	*d:	*d:	*d:	*	*d:	*d:
*M4/4	*	*	*	*	*	*	*
*clefF4	*	*	*	*	*	*	*
r;	.	1r;	.	r	.	0	N.C.
=1	=1	=1	=1	=1	=1	=1	=1
*>Letter>A	*>Letter>A	*>Letter>A	*>Letter>A	*>Letter>A	*>Letter>A	*>Letter>A	*>Letter>A
*>Label>Intro	*>Label>Intro	*>Label>Intro	*>Label>Intro	*>Label>Intro	*>Label>Intro	*>Label>Intro	*>Label>Intro
1r	.	1Dm	newline	guitar	.	0.325	D:min
=2	=2	=2	=2	=2	=2	=2	=2
1r	.	1CMm	.	guitar	.	1.985	C:7
=3	=3	=3	=3	=3	=3	=3	=3
1r	.	1B-Mm	.	guitar	.	3.645	B-:7
=4	=4	=4	=4	=4	=4	=4	=4
1r	.	1AMm	.	guitar	.	5.305	A:7
=5	=5	=5	=5	=5	=5	=5	=5
*>Letter>B	*>Letter>B	*>Letter>B	*>Letter>B	*>Letter>B	*>Letter>B	*>Letter>B	*>Letter>B
*>Label>Verse	*>Label>Verse	*>Label>Verse	*>Label>Verse	*>Label>Verse	*>Label>Verse	*>Label>Verse	*>Label>Verse
4.A	Time	1Dm	newline	voice	.	6.966	D:min
[8A	time	.	.	.	.	.	.
4A]	_	.	.	.	.	.	.
[4A	time	.	.	.	.	.	.
=6	=6	=6	=6	=6	=6	=6	=6
8A]	_	1Dm	.	voice	.	8.221	D:min
8r	.	.	.	.	.	.	.
8r	.	.	.	.	.	.	.
4A	See	.	.	.	.	.	.
8A	what's	.	.	.	.	.	.
8r	.	.	.	.	.	.	.
8F	be-	.	.	.	.	.	.
=7	=7	=7	=7	=7	=7	=7	=7
8G	-come	1CM	.	voice	.	9.477	C:maj
4G	of	.	.	.	.	.	.
[8A	me	.	.	.	A	.	.
4A]	_	.	.	.	.	.	.
4r	.	.	.	.	.	.	.
=8	=8	=8	=8	=8	=8	=8	=8
2r	.	1CM	.	voice	.	10.732	C:maj
4r	.	.	.	.	.	.	.
8G	While	.	.	.	.	.	.
[8A	I	.	.	.	.	.	.
=9	=9	=9	=9	=9	=9	=9	=9
8A]	_	1B-M	.	voice	.	11.988	B-:maj
4B-	looked	.	.	.	.	.	.
[8B-	a-	.	.	.	.	.	.
8B-]	_	.	.	.	.	.	.
4.B-	-round	.	.	.	.	.	.
=10	=10	=10	=10	=10	=10	=10	=10
4r	.	1B-M	.	voice	.	13.243	B-:maj
8B-	for	.	.	.	.	.	.
[8B-	my	.	.	.	.	.	.
8B-]	_	.	.	.	.	.	.
4A	po-	.	.	.	.	.	.
8G	-ssi-	.	.	.	.	.	.
=11	=11	=11	=11	=11	=11	=11	=11
8c	-bi-	1FM	.	voice	.	14.499	F:maj/5
4c	-li-	.	.	.	.	.	.
4.c	-ties	.	.	.	A	.	.
4r	.	.	.	.	.	.	.
=12	=12	=12	=12	=12	=12	=12	=12
2r	.	1FM	.	voice	.	15.754	F:maj/5
6A	I	.	.	.	.	.	.
6B-	was	.	.	.	.	.	.
6A	so	.	.	.	.	.	.
=13	=13	=13	=13	=13	=13	=13	=13
8A	hard	1CM	newline	voice	.	17.01	C:maj
4G	_	.	.	.	.	.	.
8F	to	.	.	.	.	.	.
2E	please	.	.	.	A	.	.
=14	=14	=14	=14	=14	=14	=14	=14
2r	.	1CM	.	voice	.	18.677	C:maj
8r	.	.	.	.	.	.	.
8E	But	.	.	.	.	.	.
16E	look	.	.	.	.	.	.
16E	a-	.	.	.	.	.	.
[8F	-round	.	.	.	B	.	.
=15	=15	=15	=15	=15	=15	=15	=15
*>Letter>C	*>Letter>C	*>Letter>C	*>Letter>C	*>Letter>C	*>Letter>C	*>Letter>C	*>Letter>C
*>Label>Chorus	*>Label>Chorus	*>Label>Chorus	*>Label>Chorus	*>Label>Chorus	*>Label>Chorus	*>Label>Chorus	*>Label>Chorus
4F]	_	1Dm	newline	voice	.	23.681	D:min
4r	.	.	.	.	.	.	.
8r	.	.	.	.	.	.	.
8A	Leaves	.	.	.	.	.	.
8F	are	.	.	.	.	.	.
[8G	brown	.	.	.	B	.	.
=16	=16	=16	=16	=16	=16	=16	=16
4G]	_	1CMm	.	voice	.	25.345	C:7
4r	.	.	.	.	.	.	.
8r	.	.	.	.	.	.	.
8G	and	.	.	.	.	.	.
8G	the	.	.	.	.	.	.
[8B-	sky	.	.	.	.	.	.
=17	=17	=17	=17	=17	=17	=17	=17
8B-]	_	1B-Mm	.	voice	.	27.009	B-:7
8r	.	.	.	.	.	.	.
4r	.	.	.	.	.	.	.
8r	.	.	.	.	.	.	.
8B-	is	.	.	.	.	.	.
8B-	a	.	.	.	.	.	.
[8c#	ha-	.	.	.	C	.	.
=18	=18	=18	=18	=18	=18	=18	=18
8c#]	_	1AMm	.	voice	.	28.673	A:7
4A	-zy	.	.	.	.	.	.
4.c#	shade	.	.	.	C	.	.
8c#	of	.	.	.	.	.	.
[8f	win-	.	.	.	.	.	.
=19	=19	=19	=19	=19	=19	=19	=19
*>Letter>B	*>Letter>B	*>Letter>B	*>Letter>B	*>Letter>B	*>Letter>B	*>Letter>B	*>Letter>B
*>Label>Verse	*>Label>Verse	*>Label>Verse	*>Label>Verse	*>Label>Verse	*>Label>Verse	*>Label>Verse	*>Label>Verse
8f]	_	1Dm	newline	voice	.	30.338	D:min
8d	-ter	.	.	.	.	.	.
4r	.	.	.	.	.	.	.
2r	.	.	.	.	.	.	.
=20	=20	=20	=20	=20	=20	=20	=20
6r	.	1Dm	.	voice	.	32.025	D:min
6A	Hear	.	.	.	.	.	.
6A	the	.	.	.	.	.	.
6A	Salv-	.	.	.	.	.	.
6G	-a-	.	.	.	.	.	.
6F	-tion	.	.	.	.	.	.
=21	=21	=21	=21	=21	=21	=21	=21
4G	Ar-	1CM	.	voice	.	33.713	C:maj
8F	-my	.	.	.	.	.	.
4.E	band	.	.	.	D	.	.
4r	.	.	.	.	.	.	.
=22	=22	=22	=22	=22	=22	=22	=22
1r	.	1CM	.	voice	.	35.401	C:maj
=23	=23	=23	=23	=23	=23	=23	=23
4B-	Down	1B-M	newline	voice	.	37.089	B-:maj
8.B-	by	.	.	.	.	.	.
16F	the	.	.	.	.	.	.
16B-	ri-	.	.	.	.	.	.
16B-	-ver-	.	.	.	.	.	.
4B-	-side	.	.	.	E	.	.
8B-	is	.	.	.	.	.	.
=24	=24	=24	=24	=24	=24	=24	=24
8B-	bound	1B-M	.	voice	.	38.792	B-:maj
8B-	to	.	.	.	.	.	.
8B-	be	.	.	.	.	.	.
8F	a	.	.	.	.	.	.
16B-	be-	.	.	.	.	.	.
16B-	-tter	.	.	.	.	.	.
4B-	ride	.	.	.	E	.	.
8B-	than	.	.	.	.	.	.
=25	=25	=25	=25	=25	=25	=25	=25
6c	what	1FMM	.	voice	.	40.496	F:maj7
6c	you've	.	.	.	.	.	.
6c	got	.	.	.	.	.	.
4c	planned	.	.	.	D	.	.
4r	.	.	.	.	.	.	.
=26	=26	=26	=26	=26	=26	=26	=26
2r	.	1FMM	.	voice	.	42.2	F:maj7
6A	Ca-	.	.	.	.	.	.
6B-	-rry	.	.	.	.	.	.
6A	your	.	.	.	.	.	.
=27	=27	=27	=27	=27	=27	=27	=27
6A	cup	1CM	newline	voice	.	43.904	C:maj
6G	in	.	.	.	.	.	.
6F	your	.	.	.	.	.	.
4E	hand	.	.	.	D	.	.
4r	.	.	.	.	.	.	.
=28	=28	=28	=28	=28	=28	=28	=28
2r	.	1CM	.	voice	.	45.638	C:maj
8r	.	.	.	.	.	.	.
8F	And	.	.	.	.	.	.
16E	look	.	.	.	.	.	.
16E	a-	.	.	.	.	.	.
[8F	-round	.	.	.	B	.	.
=29	=29	=29	=29	=29	=29	=29	=29
*>Letter>C2	*>Letter>C2	*>Letter>C2	*>Letter>C2	*>Letter>C2	*>Letter>C2	*>Letter>C2	*>Letter>C2
*>Label>Chorus	*>Label>Chorus	*>Label>Chorus	*>Label>Chorus	*>Label>Chorus	*>Label>Chorus	*>Label>Chorus	*>Label>Chorus
8F]	_	1Dm	newline	voice	.	47.373	D:min
8D	ya	.	.	.	.	.	.
4r	.	.	.	.	.	.	.
8r	.	.	.	.	.	.	.
8A	Leaves	.	.	.	.	.	.
8F	are	.	.	.	.	.	.
[8G	brown	.	.	.	B	.	.
=30	=30	=30	=30	=30	=30	=30	=30
8G]	_	1CMm	.	voice	.	49.079	C:7
8E	now	.	.	.	.	.	.
4r	.	.	.	.	.	.	.
8r	.	.	.	.	.	.	.
8G	and	.	.	.	.	.	.
8G	the	.	.	.	.	.	.
[8B-	sky	.	.	.	.	.	.
=31	=31	=31	=31	=31	=31	=31	=31
4B-]	_	1B-Mm	.	voice	.	50.784	B-:7
4r	.	.	.	.	.	.	.
8r	.	.	.	.	.	.	.
8B-	is	.	.	.	.	.	.
8B-	a	.	.	.	.	.	.
[8c#	ha-	.	.	.	C	.	.
=32	=32	=32	=32	=32	=32	=32	=32
8c#]	_	1AMm	.	voice	.	52.49	A:7
4A	-zy	.	.	.	.	.	.
4.c#	shade	.	.	.	C	.	.
8c#	of	.	.	.	.	.	.
[8f	win-	.	.	.	.	.	.
=33	=33	=33	=33	=33	=33	=33	=33
*>Letter>B	*>Letter>B	*>Letter>B	*>Letter>B	*>Letter>B	*>Letter>B	*>Letter>B	*>Letter>B
*>Label>Verse	*>Label>Verse	*>Label>Verse	*>Label>Verse	*>Label>Verse	*>Label>Verse	*>Label>Verse	*>Label>Verse
8f]	_	1Dmm	newline	voice	.	54.196	D:min7
8d	-ter	.	.	.	.	.	.
4r	.	.	.	.	.	.	.
2r	.	.	.	.	.	.	.
=34	=34	=34	=34	=34	=34	=34	=34
4r	.	1Dmm	.	voice	.	55.882	D:min7
8f	Hang	.	.	.	.	.	.
[8f	on	.	.	.	.	.	.
8f]	_	.	.	.	.	.	.
8e	to	.	.	.	.	.	.
8d	your	.	.	.	.	.	.
[8e	hopes	.	.	.	.	.	.
=35	=35	=35	=35	=35	=35	=35	=35
8e]	_	1CM	.	voice	.	57.568	C:maj(9)
4c	my	.	.	.	.	.	.
[8G	friend	.	.	.	F	.	.
4G]	_	.	.	.	.	.	.
4r	.	.	.	.	.	.	.
=36	=36	=36	=36	=36	=36	=36	=36
1r	.	1CM	.	voice	.	59.253	C:maj(9)
=37	=37	=37	=37	=37	=37	=37	=37
8B-	That's	1B-M	newline	voice	.	60.939	B-:maj(9)
16F	an	.	.	.	.	.	.
8B-	ea-	.	.	.	.	.	.
16F	-sy	.	.	.	.	.	.
[8B-	thing	.	.	.	.	.	.
16B-]	_	.	.	.	.	.	.
8F	to	.	.	.	.	.	.
8.B-	say	.	.	.	C	.	.
16F	but	.	.	.	.	.	.
[16B-	if	.	.	.	.	.	.
=38	=38	=38	=38	=38	=38	=38	=38
16B-]	_	1B-M	.	voice	.	62.671	B-:maj(9)
8.B-	you're	.	.	.	.	.	.
8B-	hopes	.	.	.	.	.	.
8F	should	.	.	.	.	.	.
8B-	pass	.	.	.	.	.	.
8B-	a-	.	.	.	.	.	.
4B-	-way	.	.	.	C	.	.
=39	=39	=39	=39	=39	=39	=39	=39
6c	Sim-	1FMM	.	voice	.	64.402	F:maj7
6c	-ply	.	.	.	.	.	.
6c	pre-	.	.	.	.	.	.
4c	-tend	.	.	.	F	.	.
4r	.	.	.	.	.	.	.
=40	=40	=40	=40	=40	=40	=40	=40
2r	.	1FMM	.	voice	.	66.133	F:maj7
6A	that	.	.	.	.	.	.
6B-	you	.	.	.	.	.	.
6A	can	.	.	.	.	.	.
=41	=41	=41	=41	=41	=41	=41	=41
6A	build	1CM	newline	voice	.	67.864	C:maj
6G	them	.	.	.	.	.	.
6F	a-	.	.	.	.	.	.
4E	-gain	.	.	.	F	.	.
4r	.	.	.	.	.	.	.
=42	=42	=42	=42	=42	=42	=42	=42
2r	.	1CM	.	voice	.	69.573	C:maj
8r	.	.	.	.	.	.	.
8F	Look	.	.	.	.	.	.
8E	a-	.	.	.	.	.	.
[8F	-round	.	.	.	B	.	.
=43	=43	=43	=43	=43	=43	=43	=43
*>Letter>C3	*>Letter>C3	*>Letter>C3	*>Letter>C3	*>Letter>C3	*>Letter>C3	*>Letter>C3	*>Letter>C3
*>Label>Chorus	*>Label>Chorus	*>Label>Chorus	*>Label>Chorus	*>Label>Chorus	*>Label>Chorus	*>Label>Chorus	*>Label>Chorus
4F]	_	1Dm	newline	voice	.	71.282	D:min
4r	.	.	.	.	.	.	.
4r	.	.	.	.	.	.	.
8A	Grass	.	.	.	.	.	.
8F	is	.	.	.	.	.	.
=44	=44	=44	=44	=44	=44	=44	=44
2G	high	1CMm	.	voice	G	72.982	C:7
4r	.	.	.	.	.	.	.
8G	Fields	.	.	.	.	.	.
8G	are	.	.	.	.	.	.
=45	=45	=45	=45	=45	=45	=45	=45
4B-	ripe	1B-Mm	.	voice	G	74.683	B-:7
4r	.	.	.	.	.	.	.
8r	.	.	.	.	.	.	.
8B-	It's	.	.	.	.	.	.
8B-	the	.	.	.	.	.	.
[8c#	spring	.	.	.	.	.	.
=46	=46	=46	=46	=46	=46	=46	=46
8c#]	_	1AMm	.	voice	.	76.383	A:7
4A	time	.	.	.	G	.	.
4c#	of	.	.	.	.	.	.
8f	my	.	.	.	.	.	.
8e	_	.	.	.	.	.	.
[8d	life	.	.	.	G	.	.
=47	=47	=47	=47	=47	=47	=47	=47
*>Letter>B	*>Letter>B	*>Letter>B	*>Letter>B	*>Letter>B	*>Letter>B	*>Letter>B	*>Letter>B
*>Label>Verse	*>Label>Verse	*>Label>Verse	*>Label>Verse	*>Label>Verse	*>Label>Verse	*>Label>Verse	*>Label>Verse
8d]	_	1Dm	newline	voice	.	78.083	D:min
8r	.	.	.	.	.	.	.
4r	.	.	.	.	.	.	.
2r	.	.	.	.	.	.	.
=48	=48	=48	=48	=48	=48	=48	=48
1r	.	1Dm	.	voice	.	79.788	D:min
=49	=49	=49	=49	=49	=49	=49	=49
[1f	Ooh	1Gm	.	voice	.	81.493	G:min
=50	=50	=50	=50	=50	=50	=50	=50
6f]	_	1Gm	.	voice	.	83.198	G:min
6d	sea-	.	.	.	A	.	.
6d	-sons	.	.	.	.	.	.
4d	change	.	.	.	.	.	.
8c	with	.	.	.	.	.	.
[8B-	the	.	.	.	.	.	.
=51	=51	=51	=51	=51	=51	=51	=51
4B-]	_	1FM	newline	voice	.	84.903	F:maj
8A	scen-	.	.	.	.	.	.
8B-	-er-	.	.	.	.	.	.
2c	-y	.	.	.	A	.	.
=52	=52	=52	=52	=52	=52	=52	=52
6r	.	1FM	.	voice	.	86.607	F:maj
6c	Weav-	.	.	.	A	.	.
6c	-ing	.	.	.	.	.	.
4d	time	.	.	.	.	.	.
8A	in	.	.	.	.	.	.
[8G	a	.	.	.	.	.	.
=53	=53	=53	=53	=53	=53	=53	=53
6G]	_	1CM	.	voice	.	88.311	C:maj
6F	ta-	.	.	.	.	.	.
6G	-pes-	.	.	.	.	.	.
4A	-try	.	.	.	A	.	.
4r	.	.	.	.	.	.	.
=54	=54	=54	=54	=54	=54	=54	=54
6r	.	1CM	.	voice	.	90.015	C:maj
6B-	Won't	.	.	.	.	.	.
6B-	you	.	.	.	.	.	.
6B-	stop	.	.	.	.	.	.
6A	and	.	.	.	.	.	.
6G	re-	.	.	.	a	.	.
=55	=55	=55	=55	=55	=55	=55	=55
4.F	-mem-	1Dm	newline	voice	.	91.718	D:min
[8G	-ber	.	.	.	.	.	.
4G]	_	.	.	.	.	.	.
4A	me	.	.	.	A	.	.
=56	=56	=56	=56	=56	=56	=56	=56
1r	.	1Dm	.	voice	.	93.424	D:min
=57	=57	=57	=57	=57	=57	=57	=57
4r	.	1CM	.	voice	.	95.129	C:maj
8r	.	.	.	.	.	.	.
8G	At	.	.	.	.	.	.
8B-	a-	.	.	.	.	.	.
8A	-ny	.	.	.	.	.	.
8F	con-	.	.	.	.	.	.
[8G	-ven-	.	.	.	.	.	.
=58	=58	=58	=58	=58	=58	=58	=58
8G]	_	1CM	.	voice	.	96.835	C:maj
4E	-ient	.	.	.	.	.	.
[8C	time	.	.	.	G	.	.
4C]	_	.	.	.	.	.	.
4r	.	.	.	.	.	.	.
=59	=59	=59	=59	=59	=59	=59	=59
16B-	Fu-	1B-M	newline	voice	.	98.54	B-:maj
16F	-nny	.	.	.	.	.	.
4B-	how	.	.	.	.	.	.
8B-	my	.	.	.	.	.	.
16B-	me-	.	.	.	.	.	.
16B-	-mo-	.	.	.	.	.	.
8F	-ry	.	.	.	.	.	.
8B-	skips	.	.	.	H	.	.
8B-	while	.	.	.	.	.	.
=60	=60	=60	=60	=60	=60	=60	=60
16B-	look-	1B-M	.	voice	.	100.274	B-:maj
8F	-ing	.	.	.	.	.	.
8B-	ov-	.	.	.	.	.	.
16F	-er	.	.	.	.	.	.
4B-	man-	.	.	.	.	.	.
8F	-u-	.	.	.	.	.	.
8B-	-scripts	.	.	.	H	.	.
8B-	of	.	.	.	.	.	.
=61	=61	=61	=61	=61	=61	=61	=61
6c	un-	1FMM	.	voice	.	102.008	F:maj7
6c	-pub-	.	.	.	.	.	.
6c	-lished	.	.	.	.	.	.
4c	rhyme	.	.	.	G	.	.
4r	.	.	.	.	.	.	.
=62	=62	=62	=62	=62	=62	=62	=62
2r	.	1FMM	.	voice	.	103.741	F:maj7
6A	Drink-	.	.	.	.	.	.
6B-	-ing	.	.	.	.	.	.
6A	my	.	.	.	.	.	.
=63	=63	=63	=63	=63	=63	=63	=63
6A	vod-	1CM	newline	voice	.	105.475	C:maj
6G	-ka	.	.	.	.	.	.
6F	and	.	.	.	.	.	.
4E	lime	.	.	.	G	.	.
4r	.	.	.	.	.	.	.
=64	=64	=64	=64	=64	=64	=64	=64
2r	.	1CM	.	voice	.	107.193	C:maj
8r	.	.	.	.	.	.	.
8E	I	.	.	.	.	.	.
16E	look	.	.	.	.	.	.
16E	a-	.	.	.	.	.	.
[8F	-round	.	.	.	B	.	.
=65	=65	=65	=65	=65	=65	=65	=65
*>Letter>A	*>Letter>A	*>Letter>A	*>Letter>A	*>Letter>A	*>Letter>A	*>Letter>A	*>Letter>A
*>Label>Chorus	*>Label>Chorus	*>Label>Chorus	*>Label>Chorus	*>Label>Chorus	*>Label>Chorus	*>Label>Chorus	*>Label>Chorus
4F]	_	1Dm	newline	voice	.	108.91	D:min
4r	.	.	.	.	.	.	.
8r	.	.	.	.	.	.	.
8A	Leaves	.	.	.	.	.	.
8F	are	.	.	.	.	.	.
[8G	brown	.	.	.	B	.	.
=66	=66	=66	=66	=66	=66	=66	=66
8G]	_	1CMm	.	voice	.	110.621	C:7
16E	now	.	.	.	.	.	.
16D	_	.	.	.	.	.	.
8C	_	.	.	.	.	.	.
8r	.	.	.	.	.	.	.
8r	.	.	.	.	.	.	.
8G	and	.	.	.	.	.	.
8G	the	.	.	.	.	.	.
[8B-	sky	.	.	.	.	.	.
=67	=67	=67	=67	=67	=67	=67	=67
4B-]	_	1B-Mm	.	voice	.	112.332	B-:7
4r	.	.	.	.	.	.	.
8r	.	.	.	.	.	.	.
8B-	is	.	.	.	.	.	.
8B-	a	.	.	.	.	.	.
[8c#	ha-	.	.	.	C	.	.
=68	=68	=68	=68	=68	=68	=68	=68
8c#]	_	1AMm	.	voice	.	114.043	A:7
4A	-zy	.	.	.	.	.	.
4.c#	shade	.	.	.	C	.	.
8c#	of	.	.	.	.	.	.
[8f	win-	.	.	.	.	.	.
=69	=69	=69	=69	=69	=69	=69	=69
8f]	_	1Dm	newline	voice	.	115.754	D:min
8d	-ter	.	.	.	.	.	.
4r	.	.	.	.	.	.	.
8r	.	.	.	.	.	.	.
8f	look	.	.	.	.	.	.
8e	a-	.	.	.	.	.	.
8d	-round	.	.	.	B	.	.
=70	=70	=70	=70	=70	=70	=70	=70
4c	_	1CMm	.	voice	.	117.445	C:7
4r	.	.	.	.	.	.	.
8r	.	.	.	.	.	.	.
8d	leaves	.	.	.	.	.	.
4c	are	.	.	.	.	.	.
=71	=71	=71	=71	=71	=71	=71	=71
4B-	brown	1B-Mm	.	voice	B	119.136	B-:7
4r	.	.	.	.	.	.	.
8r	.	.	.	.	.	.	.
8B-	there's	.	.	.	.	.	.
8B-	a	.	.	.	.	.	.
[8A	patch	.	.	.	.	.	.
=72	=72	=72	=72	=72	=72	=72	=72
8A]	_	1AMm	.	voice	.	120.827	A:7
4G	of	.	.	.	.	.	.
[8F	snow	.	.	.	.	.	.
8F]	_	.	.	.	.	.	.
8F	on	.	.	.	.	.	.
8G	the	.	.	.	.	.	.
[8A	ground	.	.	.	B	.	.
=73	=73	=73	=73	=73	=73	=73	=73
4A]	_	1Dm	newline	voice	.	122.518	D:min
4r	.	.	.	.	.	.	.
8r	.	.	.	.	.	.	.
8f	Look	.	.	.	.	.	.
8e	a-	.	.	.	.	.	.
8d	-round	.	.	.	B	.	.
=74	=74	=74	=74	=74	=74	=74	=74
4c	_	1CMm	.	voice	.	124.204	C:7
4r	.	.	.	.	.	.	.
6r	.	.	.	.	.	.	.
6d	leaves	.	.	.	.	.	.
6c	are	.	.	.	.	.	.
=75	=75	=75	=75	=75	=75	=75	=75
4B-	brown	1B-Mm	.	voice	B	125.89	B-:7
4r	.	.	.	.	.	.	.
8r	.	.	.	.	.	.	.
8B-	there's	.	.	.	.	.	.
8B-	a	.	.	.	.	.	.
[8A	patch	.	.	.	.	.	.
=76	=76	=76	=76	=76	=76	=76	=76
8A]	_	1AMm	.	voice	.	127.575	A:7
4G	of	.	.	.	.	.	.
[8F	snow	.	.	.	.	.	.
8F]	_	.	.	.	.	.	.
8F	on	.	.	.	.	.	.
8E	the	.	.	.	.	.	.
[8D	ground	.	.	.	B	.	.
=77	=77	=77	=77	=77	=77	=77	=77
4D]	_	1Dm	newline	voice	.	129.261	D:min
4r	.	.	.	.	.	.	.
8r	.	.	.	.	.	.	.
8f	Look	.	.	.	.	.	.
8e	a-	.	.	.	.	.	.
8d	-round	.	.	.	B	.	.
=78	=78	=78	=78	=78	=78	=78	=78
4c	_	1CMm	.	voice	.	130.955	C:7
4r	.	.	.	.	.	.	.
6r	.	.	.	.	.	.	.
6d	leaves	.	.	.	.	.	.
6c	are	.	.	.	.	.	.
=79	=79	=79	=79	=79	=79	=79	=79
4B-	brown	1B-Mm	.	voice	B	132.65	B-:7
4r	.	.	.	.	.	.	.
8r	.	.	.	.	.	.	.
8B-	There's	.	.	.	.	.	.
8B-	a	.	.	.	.	.	.
[8A	patch	.	.	.	.	.	.
=80	=80	=80	=80	=80	=80	=80	=80
8A]	_	1AMm	.	voice	.	134.344	A:7
4G	of	.	.	.	.	.	.
[8F	snow	.	.	.	.	.	.
8F]	_	.	.	.	.	.	.
8F	on	.	.	.	.	.	.
8G	the	.	.	.	.	.	.
[8A	ground	.	.	.	B	.	.
=81	=81	=81	=81	=81	=81	=81	=81
4A]	_	1r	.	r	.	137.522	N.C.
4r	.	.	.	.	.	.	.
2r	.	.	.	.	.	.	.
r;	.	1r;	.	r	.	.	N.C.
*-	*-	*-	*-	*-	*-	*-	*-
!!!BillboardChartDate: 1966/11/26
!!!BillboardPeak: 13
!!!BillboardWeeksOnChart: 9
!!!COC: Simon & Garfunkel
!!!EMD: Added *>B_verse section labels... All were missing except the first one. -Nat
!!!EMD: Removed excess measures 15 and 16, and added measure (in time) at the end. -Nat
!!!ENC: Nathaniel Condit-Schultz
!!!EST: Awating manual error checking and editing.
!!!OTL: A Hazy Shade Of Winter
!!!RDF**chordsym: original McGill chord annotation + (implied pitch class set, with bass pitch in first position)
!!!RDF**harmony: **recip + pitch class of root + harmonic quality
!!!RDF**leadinstrument: original McGill primary instrumentation annotation
!!!RDF**phrase: newline = linebreak in original McGill transcription
!!!RDF**timestamp: McGill audio timestamp in seconds
!!!RDT: 2017/01/12/
!!!SampleActualRank: 17
!!!SampleID#: 1121
!!!SampleTargetRank: 18
